X:454
T: Hongjun laiguonian
N: C2072
O: China, Jiangxi Guixi
S: IV, 225]
R: Xiaodiao]
M: 2/4
L: 1/16
K: Bb
f2f2g2b2 | f6d2 | c2cdc2b2 | f2gbc4
c2f2c2b2 | b2f2g4 | c2fgc2bg | f4
f2f2 | c2d2f2z2
f4c2d2 | f8

